X: 7529
T:the Old Dutch Churn
D:Buddy MacMaster
R:Jig
O:Canada
M:6/8
Q:1/8=300
A:Cape Breton
K:Gm
A| \
B3 Bd2 | G2d dcB | A3 Ac2 | F2c cBA | \
B3 Bd2 | G2d dcB | dfd cBA| G3 G2 :|
z| \
b3 g3 | b2g gfd | a3 f3 | fgf agf | \
b3 g3 | b2g gfd | fdB Bdf | g3 g2a |
b3 g3 | b2g gfd | a3 f3 | fgf agf |\
b3 g3 | a2g gfd | dfd cBA | G3 G3|]
